libs/svg/apps-select.svg

<svg width="16" height="16" viewBox="0 0 16 16" fill="none" xmlns="http://www.w3.org/2000/svg">
<path d="M4.5 3.5H3.5V4.5H4.5V3.5Z" stroke="black"/>
<path d="M4.5 7.5H3.5V8.5H4.5V7.5Z" stroke="black"/>
<path d="M4.5 11.5H3.5V12.5H4.5V11.5Z" stroke="black"/>
<path d="M8.5 7.5H7.5V8.5H8.5V7.5Z" stroke="black"/>
<path d="M8.5 3.5H7.5V4.5H8.5V3.5Z" stroke="black"/>
<path d="M12.5 7.5H11.5V8.5H12.5V7.5Z" stroke="black"/>
<path d="M8.5 11.5H7.5V12.5H8.5V11.5Z" stroke="black"/>
<path d="M12.5 3.5H11.5V4.5H12.5V3.5Z" stroke="black"/>
<path d="M12.5 11.5H11.5V12.5H12.5V11.5Z" stroke="black"/>
</svg>

<svg
  xmlns="http://www.w3.org/2000/svg"
  width="16"
  height="16"
  fill="none"
  viewBox="0 0 16 16"
>
  <path
    stroke="currentColor"
    stroke-width="1"
    d="M4.5 3.5h-1v1h1v-1Zm0 4h-1v1h1v-1Zm0 4h-1v1h1v-1Zm4-4h-1v1h1v-1Zm0-4h-1v1h1v-1Zm4 4h-1v1h1v-1Zm-4 4h-1v1h1v-1Zm4-8h-1v1h1v-1Zm0 8h-1v1h1v-1Z"
  />
</svg>
